public/assets/img/mission3.svg

<svg width="40" height="37" viewBox="0 0 40 37" fill="none" xmlns="http://www.w3.org/2000/svg">
<path d="M39.2188 35.4555H37.6329V33.4397C37.6329 31.2118 36.1814 29.3129 34.1641 28.6182C35.3817 27.6163 36.158 26.1073 36.158 24.4225C36.158 21.4131 33.6811 18.9647 30.6366 18.9647C29.1275 18.9647 27.7579 19.5662 26.7602 20.5395C26.4025 17.1648 23.5072 14.5257 20 14.5257C16.4928 14.5257 13.5975 17.1648 13.2398 20.5395C12.2421 19.5662 10.8725 18.9647 9.36344 18.9647C6.31891 18.9647 3.84195 21.4131 3.84195 24.4225C3.84195 26.1073 4.61828 27.6162 5.83586 28.6182C3.81859 29.3129 2.36703 31.2119 2.36703 33.4397V35.4555H0.78125C0.349766 35.4555 0 35.8013 0 36.2278C0 36.6543 0.349766 37 0.78125 37H16.4682C16.8997 37 17.2495 36.6543 17.2495 36.2278C17.2495 35.8013 16.8997 35.4555 16.4682 35.4555H12.8931V32.6891C12.8931 30.0835 15.0377 27.9638 17.6736 27.9638H22.3263C24.9623 27.9638 27.1068 30.0836 27.1068 32.6891V35.4555H23.5316C23.1002 35.4555 22.7504 35.8013 22.7504 36.2278C22.7504 36.6543 23.1002 37 23.5316 37H39.2188C39.6502 37 40 36.6543 40 36.2278C40 35.8013 39.6502 35.4555 39.2188 35.4555ZM30.6366 20.5092C32.8195 20.5092 34.5955 22.2647 34.5955 24.4225C34.5955 26.5804 32.8196 28.3359 30.6366 28.3359C28.4535 28.3359 26.6776 26.5804 26.6776 24.4225C26.6776 22.2647 28.4536 20.5092 30.6366 20.5092ZM20 16.0702C22.8866 16.0702 25.235 18.3915 25.235 21.2447C25.235 24.0979 22.8866 26.4193 20 26.4193C17.1134 26.4193 14.7651 24.098 14.7651 21.2448C14.7651 18.3916 17.1134 16.0702 20 16.0702ZM5.40445 24.4225C5.40445 22.2647 7.18039 20.5092 9.36344 20.5092C11.5465 20.5092 13.3224 22.2647 13.3224 24.4225C13.3224 26.5804 11.5465 28.3359 9.36344 28.3359C7.18039 28.3359 5.40445 26.5803 5.40445 24.4225ZM3.92953 33.4397C3.92953 31.477 5.54492 29.8803 7.53047 29.8803H11.1963C11.4697 29.8803 11.7089 29.9085 11.9561 29.9752C11.5553 30.7969 11.3305 31.7176 11.3305 32.6892V35.4556H3.92953V33.4397ZM13.6815 27.8202C14.2114 27.1636 14.5915 26.3839 14.7702 25.5322C15.1217 25.9505 15.5236 26.3261 15.9665 26.6499C15.1207 26.8838 14.3457 27.2871 13.6815 27.8202ZM24.0335 26.6499C24.4764 26.3261 24.8783 25.9505 25.2298 25.5322C25.4085 26.3839 25.7887 27.1636 26.3185 27.8202C25.6543 27.2872 24.8794 26.8838 24.0335 26.6499ZM28.6694 35.4555V32.6891C28.6694 31.7176 28.4446 30.7968 28.0438 29.9752C28.291 29.9085 28.5302 29.8803 28.8036 29.8803H32.4695C34.4551 29.8803 36.0704 31.477 36.0704 33.4397V35.4555H28.6694Z" fill="white"/>
<path d="M20.4195 35.5858C20.1495 35.4077 19.7866 35.4162 19.5244 35.6048C19.262 35.7935 19.1453 36.1359 19.2359 36.4433C19.3259 36.7482 19.6039 36.972 19.9242 36.9972C20.2537 37.0232 20.5711 36.8338 20.7023 36.5342C20.8496 36.1983 20.7312 35.7875 20.4195 35.5858Z" fill="white"/>
<path d="M11.2487 15.1898C11.0851 15.1898 10.9201 15.1574 10.7627 15.0914L8.96195 14.3373L7.16125 15.0914C6.75695 15.2608 6.30352 15.2095 5.94836 14.9544C5.5932 14.6993 5.40383 14.2889 5.4418 13.8565L5.61086 11.9307L4.32883 10.471C4.04102 10.1431 3.95023 9.70103 4.08594 9.28834C4.22164 8.87566 4.55797 8.57078 4.98578 8.47293L6.89086 8.03677L7.8993 6.38047C8.1257 6.00864 8.52297 5.7867 8.96203 5.7867C9.40102 5.7867 9.79836 6.00872 10.0247 6.38047L11.0331 8.03677L12.9384 8.47293C13.366 8.57086 13.7024 8.87566 13.8381 9.28842C13.9738 9.70118 13.883 10.1432 13.5952 10.471L12.3132 11.9307L12.4823 13.8565C12.5202 14.2889 12.3309 14.6993 11.9756 14.9544C11.7587 15.11 11.5053 15.1898 11.2487 15.1898ZM5.85977 9.85802L7.00773 11.1653C7.14641 11.3232 7.21438 11.5299 7.19609 11.7383L7.04469 13.4628L8.65719 12.7876C8.85195 12.706 9.07195 12.706 9.26672 12.7876L10.8792 13.4628L10.7278 11.7383C10.7095 11.5299 10.7775 11.3232 10.9162 11.1653L12.0641 9.85802L10.358 9.46742C10.152 9.42024 9.97399 9.29244 9.86492 9.11328L8.96187 7.63011L8.05891 9.11328C7.94984 9.29244 7.77187 9.42024 7.56578 9.46742L5.85977 9.85802Z" fill="white"/>
<path d="M33.3249 15.1898C33.1612 15.1898 32.9963 15.1574 32.8388 15.0914L31.038 14.3373L29.2374 15.0914C28.833 15.2606 28.3797 15.2096 28.0245 14.9544C27.6693 14.6993 27.4799 14.289 27.5179 13.8566L27.687 11.9308L26.405 10.471C26.1171 10.1431 26.0264 9.70103 26.1622 9.28834C26.2979 8.87566 26.6343 8.57085 27.062 8.47301L28.9671 8.03685L29.9755 6.38055C30.2018 6.00872 30.5991 5.78678 31.0382 5.78678C31.4773 5.78678 31.8745 6.00879 32.1009 6.38063L33.1094 8.03685L35.0145 8.47301C35.4423 8.57093 35.7786 8.87573 35.9143 9.2885C36.05 9.70126 35.9591 10.1433 35.6714 10.471L34.3895 11.9308L34.5585 13.8566C34.5964 14.289 34.4071 14.6994 34.0519 14.9545C33.8348 15.11 33.5814 15.1898 33.3249 15.1898ZM27.9359 9.85802L29.0838 11.1653C29.2225 11.3232 29.2905 11.5299 29.2722 11.7383L29.1208 13.4628L30.7333 12.7876C30.9281 12.706 31.148 12.706 31.3429 12.7876L32.9554 13.4628L32.804 11.7383C32.7858 11.53 32.8537 11.3233 32.9923 11.1653L34.1403 9.8581L32.4343 9.4675C32.2281 9.42032 32.0502 9.29251 31.9411 9.11343L31.038 7.63027L30.1351 9.11343C30.026 9.29259 29.848 9.42039 29.642 9.46758L27.9359 9.85802Z" fill="white"/>
<path d="M17.1729 11.2607C16.894 11.2607 16.6184 11.174 16.3826 11.0046C15.9963 10.7273 15.7903 10.2809 15.8316 9.81076L16.0474 7.35265L14.4111 5.48939C14.0981 5.13308 13.9994 4.65236 14.1469 4.20345C14.2944 3.75463 14.6602 3.42303 15.1253 3.31654L17.5571 2.75991L18.8444 0.645824C19.0905 0.241479 19.5227 0 20 0C20.4774 0 20.9095 0.241479 21.1557 0.645824L22.4428 2.75983L24.8745 3.31646C25.3398 3.42295 25.7055 3.75455 25.853 4.20345C26.0005 4.65228 25.9017 5.13308 25.5887 5.48939L23.9525 7.35257L24.1684 9.81069C24.2096 10.2808 24.0037 10.7272 23.6173 11.0046C23.231 11.2819 22.7378 11.3376 22.2984 11.1535L20 10.1912L17.7016 11.1537C17.5303 11.2254 17.3509 11.2607 17.1729 11.2607ZM20 8.58028C20.1037 8.58028 20.2073 8.60066 20.3047 8.64144L22.5809 9.59461L22.3672 7.16028C22.349 6.95193 22.4169 6.7452 22.5555 6.58728L24.176 4.74201L21.7678 4.19071C21.5616 4.14353 21.3838 4.01572 21.2746 3.83656L20 1.74287L18.7253 3.83649C18.6163 4.01565 18.4384 4.14345 18.2322 4.19063L15.8239 4.74194L17.4445 6.5872C17.5831 6.74505 17.6511 6.95185 17.6328 7.1602L17.4191 9.59453L19.6952 8.64136C19.7927 8.60066 19.8963 8.58028 20 8.58028Z" fill="white"/>
</svg>

<svg width="40" height="37" fill="none" xmlns="http://www.w3.org/2000/svg"><path d="M39.219 35.456h-1.586V33.44c0-2.228-1.452-4.127-3.469-4.822a5.424 5.424 0 0 0 1.994-4.195c0-3.01-2.477-5.458-5.521-5.458-1.51 0-2.88.601-3.877 1.575-.358-3.375-3.253-6.014-6.76-6.014-3.507 0-6.402 2.639-6.76 6.014a5.536 5.536 0 0 0-3.877-1.575c-3.044 0-5.521 2.448-5.521 5.457 0 1.685.776 3.194 1.994 4.196-2.017.695-3.469 2.594-3.469 4.822v2.016H.781a.777.777 0 0 0-.781.772c0 .426.35.772.781.772h15.687a.777.777 0 0 0 .782-.772.777.777 0 0 0-.782-.773h-3.575V32.69c0-2.605 2.145-4.725 4.78-4.725h4.653c2.636 0 4.78 2.12 4.78 4.725v2.767h-3.574a.777.777 0 0 0-.782.772c0 .426.35.772.782.772h15.687a.777.777 0 0 0 .781-.772.777.777 0 0 0-.781-.773Zm-8.582-14.947c2.182 0 3.959 1.756 3.959 3.913 0 2.158-1.776 3.914-3.96 3.914-2.183 0-3.958-1.756-3.958-3.913 0-2.158 1.776-3.914 3.959-3.914ZM20 16.07c2.887 0 5.235 2.322 5.235 5.175 0 2.853-2.348 5.174-5.235 5.174-2.887 0-5.235-2.321-5.235-5.174S17.113 16.07 20 16.07ZM5.404 24.422c0-2.157 1.776-3.913 3.96-3.913 2.182 0 3.958 1.756 3.958 3.913 0 2.158-1.775 3.914-3.959 3.914-2.183 0-3.959-1.756-3.959-3.913ZM3.93 33.44c0-1.963 1.615-3.56 3.6-3.56h3.666c.274 0 .513.029.76.095a6.173 6.173 0 0 0-.625 2.714v2.767H3.93V33.44Zm9.752-5.62c.53-.656.91-1.436 1.088-2.288.352.419.754.794 1.197 1.118a6.359 6.359 0 0 0-2.286 1.17Zm10.351-1.17c.443-.324.845-.7 1.197-1.118a5.413 5.413 0 0 0 1.088 2.288 6.36 6.36 0 0 0-2.285-1.17Zm4.636 8.806v-2.767c0-.971-.224-1.892-.625-2.714.247-.067.486-.095.76-.095h3.665c1.986 0 3.601 1.597 3.601 3.56v2.016h-7.4Z" fill="#fff"/><path d="M20.42 35.586a.797.797 0 0 0-.896.019.774.774 0 0 0-.288.838c.09.305.368.529.688.554a.788.788 0 0 0 .778-.463.772.772 0 0 0-.283-.948ZM11.249 15.19c-.164 0-.329-.033-.486-.099l-1.801-.754-1.8.754c-.405.17-.858.119-1.214-.137a1.21 1.21 0 0 1-.506-1.098l.169-1.925-1.282-1.46a1.206 1.206 0 0 1-.243-1.183c.136-.412.472-.717.9-.815l1.905-.436L7.899 6.38a1.234 1.234 0 0 1 1.063-.593c.439 0 .836.222 1.063.593l1.008 1.657 1.905.436c.428.098.764.403.9.815.136.413.045.855-.243 1.183l-1.282 1.46.17 1.926a1.21 1.21 0 0 1-.507 1.097c-.217.156-.47.236-.727.236Zm-5.39-5.332 1.149 1.307a.766.766 0 0 1 .188.573l-.151 1.725 1.612-.675a.79.79 0 0 1 .61 0l1.612.675-.151-1.725a.766.766 0 0 1 .188-.573l1.148-1.307-1.706-.39a.781.781 0 0 1-.493-.355L8.962 7.63l-.903 1.483a.78.78 0 0 1-.493.354l-1.706.391ZM33.325 15.19c-.164 0-.329-.033-.486-.099l-1.801-.754-1.8.754c-.405.17-.858.119-1.213-.137a1.21 1.21 0 0 1-.507-1.097l.169-1.926-1.282-1.46a1.205 1.205 0 0 1-.243-1.183c.136-.412.472-.717.9-.815l1.905-.436 1.009-1.656a1.233 1.233 0 0 1 1.062-.594c.44 0 .837.222 1.063.594l1.008 1.656 1.905.436c.428.098.765.403.9.816.136.412.045.854-.243 1.182l-1.282 1.46.17 1.926c.037.432-.152.842-.507 1.098-.217.155-.47.235-.727.235Zm-5.39-5.332 1.149 1.307a.766.766 0 0 1 .188.573l-.151 1.725 1.612-.675a.79.79 0 0 1 .61 0l1.612.675-.151-1.725a.767.767 0 0 1 .188-.573l1.148-1.307-1.706-.39a.78.78 0 0 1-.493-.355l-.903-1.483-.903 1.483a.781.781 0 0 1-.493.355l-1.706.39ZM17.173 11.26c-.279 0-.555-.086-.79-.255a1.317 1.317 0 0 1-.551-1.194l.215-2.458-1.636-1.864a1.311 1.311 0 0 1-.264-1.286c.147-.448.513-.78.978-.886l2.432-.557L18.844.646A1.342 1.342 0 0 1 20 0c.477 0 .91.241 1.156.646l1.287 2.114 2.431.556c.466.107.832.439.979.887.147.45.049.93-.264 1.286l-1.636 1.864.215 2.458c.042.47-.164.916-.55 1.194-.387.277-.88.333-1.32.148L20 10.191l-2.298.963c-.172.071-.351.107-.53.107ZM20 8.58c.104 0 .207.02.305.061l2.276.954-.214-2.435a.767.767 0 0 1 .188-.573l1.621-1.845-2.408-.551a.781.781 0 0 1-.493-.354L20 1.743l-1.275 2.093a.78.78 0 0 1-.493.355l-2.408.55 1.62 1.846a.767.767 0 0 1 .189.573l-.214 2.435 2.276-.954a.791.791 0 0 1 .305-.06Z" fill="#fff"/></svg>
